src/assets/duotone/Moon.svg

<svg width="24" height="24" viewBox="0 0 24 24"  xmlns="http://www.w3.org/2000/svg">
<path d="M9.0002 19C9.0002 19.84 9.1302 20.66 9.3702 21.42C5.5302 20.09 2.6302 16.56 2.3302 12.43C2.0302 8.03999 4.5602 3.93999 8.6502 2.21999C9.7102 1.77999 10.2502 2.09999 10.4802 2.32999C10.7002 2.54999 11.0102 3.07999 10.5702 4.08999C10.1202 5.12999 9.9002 6.22999 9.9002 7.36999C9.9102 9.40999 10.7102 11.3 12.0102 12.75C10.1802 14.21 9.0002 16.47 9.0002 19Z" />
<path opacity="0.4" d="M21.21 17.72C19.23 20.41 16.09 21.99 12.74 21.99C12.58 21.99 12.42 21.98 12.26 21.97C11.26 21.93 10.29 21.74 9.37 21.42C9.13 20.66 9 19.84 9 19C9 16.47 10.18 14.21 12.01 12.75C13.48 14.4 15.59 15.47 17.92 15.57C18.55 15.6 19.18 15.55 19.8 15.44C20.92 15.24 21.37 15.66 21.53 15.93C21.7 16.2 21.88 16.79 21.21 17.72Z" />
</svg>

<?xml version="1.0" encoding="UTF-8"?>
<svg width="24" height="24" viewBox="0 0 24 24" xmlns="http://www.w3.org/2000/svg">
 <path d="m9.0002 19c0 0.84 0.13 1.66 0.37 2.42-3.84-1.33-6.74-4.86-7.04-8.99-0.3-4.39 2.23-8.49 6.32-10.21 1.06-0.44 1.6-0.12 1.83 0.11 0.22 0.22 0.53 0.75 0.09 1.76-0.45 1.04-0.67 2.14-0.67 3.28 0.01 2.04 0.81 3.93 2.11 5.38-1.83 1.46-3.01 3.72-3.01 6.25z"/>
 <path d="m21.21 17.72c-1.98 2.69-5.12 4.27-8.47 4.27-0.16 0-0.32-0.01-0.48-0.02-1-0.04-1.97-0.23-2.89-0.55-0.24-0.76-0.37-1.58-0.37-2.42 0-2.53 1.18-4.79 3.01-6.25 1.47 1.65 3.58 2.72 5.91 2.82 0.63 0.03 1.26-0.02 1.88-0.13 1.12-0.2 1.57 0.22 1.73 0.49 0.17 0.27 0.35 0.86-0.32 1.79z" opacity=".4"/>
</svg>
